src/pos-icons/book-information-variant.svg

<svg height="24" viewBox="0 0 24 24" width="24" xmlns="http://www.w3.org/2000/svg"><path d="m18 2h-6v7l-2.5-1.5-2.5 1.5v-7h-1c-1.1 0-2 .9-2 2v16c0 1.1.9 2 2 2h12c1.1 0 2-.9 2-2v-16c0-1.11-.9-2-2-2m-.32 16.41c-.11.09-1.21.84-1.63 1.09-.42.29-2.05 1.22-1.79-.58.63-3.64 1.85-5.8.39-4.86-.38.23-.6.37-.74.44-.13.11-.12.1-.23-.09s-.15-.18-.01-.28c0 0 2.23-1.79 3.05-1.85.78-.07.59.89.52 1.33-.46 1.85-1.3 4.54-1.17 4.93.11.39.93-.23 1.37-.54 0 0 .06-.07.17.05.11.17.22.25.07.36m-.71-7.35c-.57 0-1.03-.46-1.03-1.03s.46-1.03 1.03-1.03 1.03.46 1.03 1.03-.46 1.03-1.03 1.03z"/></svg>

<?xml version="1.0" encoding="UTF-8"?><!DOCTYPE svg PUBLIC "-//W3C//DTD SVG 1.1//EN" "http://www.w3.org/Graphics/SVG/1.1/DTD/svg11.dtd"><svg xmlns="http://www.w3.org/2000/svg" xmlns:xlink="http://www.w3.org/1999/xlink" version="1.1" id="mdi-book-information-variant" width="24" height="24" viewBox="0 0 24 24"><path d="M18 2H12V9L9.5 7.5L7 9V2H6C4.9 2 4 2.9 4 4V20C4 21.1 4.9 22 6 22H18C19.1 22 20 21.1 20 20V4C20 2.89 19.1 2 18 2M17.68 18.41C17.57 18.5 16.47 19.25 16.05 19.5C15.63 19.79 14 20.72 14.26 18.92C14.89 15.28 16.11 13.12 14.65 14.06C14.27 14.29 14.05 14.43 13.91 14.5C13.78 14.61 13.79 14.6 13.68 14.41S13.53 14.23 13.67 14.13C13.67 14.13 15.9 12.34 16.72 12.28C17.5 12.21 17.31 13.17 17.24 13.61C16.78 15.46 15.94 18.15 16.07 18.54C16.18 18.93 17 18.31 17.44 18C17.44 18 17.5 17.93 17.61 18.05C17.72 18.22 17.83 18.3 17.68 18.41M16.97 11.06C16.4 11.06 15.94 10.6 15.94 10.03C15.94 9.46 16.4 9 16.97 9C17.54 9 18 9.46 18 10.03C18 10.6 17.54 11.06 16.97 11.06Z" /></svg>
